X:19
T:Miss Thompson's Reel                                                                              
M:4/4                                                                                               
K:D                                                                                                 
L:1/8                                                                                               
d3 f edcB|AAAB AGFE|DFAF DGBG|DFAF GFED|                                                            
d3 f edcB|AAAB AGFE|DFAd fedc|d2  dc dABc|                                                          
defa edcB|AAAB AGFE|DFAF DGBG|AAFA GFED|                                                            
d3  f edcB|AAAB AGFE|DFAd fedc|d2 d2 c decd ||                                                      
|: ecec Acec|fdfd Adfd|gege fdfd|edcB AAAc|                                                         
BGBG DGBd|AFAF DFAd|FAde fedc|1 d2 dc decd :|2 d2 dc eABc |>|
